X:18
T:Wohlfahrt 18 Op 54 No 14
C:Franz Wohlfahrt / K.H. Aiquoni
L:1/8
Q:1/4=90
M:2/4
I:linebreak $
K:G
"G" z"^18" (G2 F | A) (G2 ^D |"C" E) (G2 c | e) (E2 A |"D" G) (F2 d | c) (B2 e | d) (^c2 a | 
"D7" f) (d2 =c |$"G" B) (g2 f | a) (g2 B |"C" e) (G2 c | B) (e2 =d | c)"D7" (E2 A |"G" G) (B,2 E | 
"D7" D) (F2 d |"G" B) (G2 =F |$"E7" E) (e2 B |"Am" d) (c2 a |"E7" ^g) (b2 B |"Am" d) (c2 E | 
"D7" D) (d2 A |"G" c) (B2 g |"D7" f) (a2 A |"G" c) (B2 g |$"G" b) (B2 g |"G" b) (B2 g | 
"G" b) (B2 g |"G" b) (B2 c |"G" d) (D2 G |"G" d) (D2 G |"G" d) (D2 E |"D7" F) (C2 A, ||$ 
"G" G,) G2 F | A (G2 ^D |"C" E) (G2 c | e) (E2 A |"D" G) (F2 d | c) (B2 e | d) (^c2 a | 
"D7" f) (d2 =c |$"G" B) (g2 f | a) (g2 B |"C" e) (G2 c | B) (e2 =d | c)"D7" (E2 A |"G" G) (B,2 C | 
"D7" D) (A,2 B, |"G" G,) (g2 a |$"G" b) (d2 e | d) (g2 a |"G" b) (d2 e | d) (g2 a |"G" b) (B,2 A, | 
G,) (g2 a |"G" b) (B,2 A, | G,) (g2 a |$"G" b) (b2 g | d) (d2 f |"G" g) (g2 d | B) (B2 c | 
"G" d) (d2 B | G) (B2 d |"G" g) (D2 B, | G,) z z2 |] 



